account_invoice_advance_sale/static/description/icon.svg

<?xml version="1.0" encoding="UTF-8" standalone="no"?>
<!-- Created with Inkscape (http://www.inkscape.org/) -->

<svg
   xmlns:dc="http://purl.org/dc/elements/1.1/"
   xmlns:cc="http://creativecommons.org/ns#"
   xmlns:rdf="http://www.w3.org/1999/02/22-rdf-syntax-ns#"
   xmlns:svg="http://www.w3.org/2000/svg"
   xmlns="http://www.w3.org/2000/svg"
   xmlns:sodipodi="http://sodipodi.sourceforge.net/DTD/sodipodi-0.dtd"
   xmlns:inkscape="http://www.inkscape.org/namespaces/inkscape"
   id="svg2"
   version="1.1"
   inkscape:version="0.92.3 (2405546, 2018-03-11)"
   width="128"
   height="128"
   sodipodi:docname="icon.svg"
   inkscape:export-filename="/var/lib/odoo/hg2/addons/trey-addons/vertical_base/static/description/icon.png"
   inkscape:export-xdpi="96"
   inkscape:export-ydpi="96">
  <metadata
     id="metadata8">
    <rdf:RDF>
      <cc:Work
         rdf:about="">
        <dc:format>image/svg+xml</dc:format>
        <dc:type
           rdf:resource="http://purl.org/dc/dcmitype/StillImage" />
        <dc:title />
      </cc:Work>
    </rdf:RDF>
  </metadata>
  <defs
     id="defs6">
    <symbol
       id="symbol5748">
      <title
         id="title5750">Grade</title>
      <path
         d="M 24,34.54 36.36,42 33.09,27.94 44,18.49 29.62,17.25 24,4 18.38,17.25 4,18.49 14.91,27.94 11.64,42 Z"
         style="stroke:none"
         id="path5752"
         inkscape:connector-curvature="0" />
    </symbol>
    <symbol
       id="symbol4786">
      <title
         id="title4788">Person</title>
      <path
         d="m 24,24 c 4.42,0 8,-3.59 8,-8 0,-4.42 -3.58,-8 -8,-8 -4.42,0 -8,3.58 -8,8 0,4.41 3.58,8 8,8 z m 0,4 C 18.67,28 8,30.67 8,36 v 4 H 40 V 36 C 40,30.67 29.33,28 24,28 Z"
         style="stroke:none"
         id="path4790"
         inkscape:connector-curvature="0" />
    </symbol>
    <symbol
       id="symbol5791">
      <title
         id="title5793">Https</title>
      <path
         d="M 36,16 H 34 V 12 C 34,6.48 29.52,2 24,2 18.48,2 14,6.48 14,12 v 4 h -2 c -2.21,0 -4,1.79 -4,4 v 20 c 0,2.21 1.79,4 4,4 h 24 c 2.21,0 4,-1.79 4,-4 V 20 c 0,-2.21 -1.79,-4 -4,-4 z M 24,34 c -2.21,0 -4,-1.79 -4,-4 0,-2.21 1.79,-4 4,-4 2.21,0 4,1.79 4,4 0,2.21 -1.79,4 -4,4 z M 30.2,16 H 17.8 v -4 c 0,-3.42 2.78,-6.2 6.2,-6.2 3.42,0 6.2,2.78 6.2,6.2 z"
         style="stroke:none"
         id="path5795"
         inkscape:connector-curvature="0" />
    </symbol>
    <symbol
       id="symbol5857">
      <title
         id="title5859">Lock Open</title>
      <path
         d="m 24,34 c 2.21,0 4,-1.79 4,-4 0,-2.21 -1.79,-4 -4,-4 -2.21,0 -4,1.79 -4,4 0,2.21 1.79,4 4,4 z M 36,16 H 34 V 12 C 34,6.48 29.52,2 24,2 18.48,2 14,6.48 14,12 h 3.8 c 0,-3.42 2.78,-6.2 6.2,-6.2 3.42,0 6.2,2.78 6.2,6.2 v 4 H 12 c -2.21,0 -4,1.79 -4,4 v 20 c 0,2.21 1.79,4 4,4 h 24 c 2.21,0 4,-1.79 4,-4 V 20 c 0,-2.21 -1.79,-4 -4,-4 z m 0,24 H 12 V 20 h 24 z"
         style="stroke:none"
         id="path5861"
         inkscape:connector-curvature="0" />
    </symbol>
    <symbol
       id="symbol10530">
      <title
         id="title10532">Local Grocery Store</title>
      <path
         d="m 14,36 c -2.21,0 -3.98,1.79 -3.98,4 0,2.21 1.77,4 3.98,4 2.21,0 4,-1.79 4,-4 0,-2.21 -1.79,-4 -4,-4 z M 2,4 v 4 h 4 l 7.19,15.17 -2.7,4.9 C 10.18,28.65 10,29.3 10,30 c 0,2.21 1.79,4 4,4 H 38 V 30 H 14.85 c -0.28,0 -0.5,-0.22 -0.5,-0.5 0,-0.09 0.02,-0.17 0.06,-0.24 L 16.2,26 h 14.9 c 1.5,0 2.81,-0.83 3.5,-2.06 L 41.75,10.96 C 41.91,10.68 42,10.35 42,10 42,8.89 41.1,8 40,8 H 10.43 L 8.53,4 Z m 32,32 c -2.21,0 -3.98,1.79 -3.98,4 0,2.21 1.77,4 3.98,4 2.21,0 4,-1.79 4,-4 0,-2.21 -1.79,-4 -4,-4 z"
         style="stroke:none"
         id="path10534"
         inkscape:connector-curvature="0" />
    </symbol>
    <symbol
       id="symbol5119">
      <title
         id="title5121">Mail</title>
      <path
         d="M 40,8 H 8 C 5.79,8 4.02,9.79 4.02,12 L 4,36 c 0,2.21 1.79,4 4,4 h 32 c 2.21,0 4,-1.79 4,-4 V 12 C 44,9.79 42.21,8 40,8 Z M 40,16 24,26 8,16 V 12 L 24,22 40,12 Z"
         style="stroke:none"
         id="path5123"
         inkscape:connector-curvature="0" />
    </symbol>
    <symbol
       id="symbol7506">
      <title
         id="title7508">Check</title>
      <path
         d="M 18,32.34 9.66,24 6.83,26.83 18,38 42,14 39.17,11.17 Z"
         style="stroke:none"
         id="path7510"
         inkscape:connector-curvature="0" />
    </symbol>
    <clipPath
       clipPathUnits="userSpaceOnUse"
       id="clipPath13866">
      <rect
         style="opacity:1;fill:#d50000;fill-opacity:1;stroke:none;stroke-width:4;stroke-linecap:butt;stroke-linejoin:miter;stroke-miterlimit:4;stroke-dasharray:none;stroke-dashoffset:0;stroke-opacity:1"
         id="rect13868"
         width="33.185184"
         height="17.777779"
         x="7.4074073"
         y="-0.53565156" />
    </clipPath>
    <clipPath
       clipPathUnits="userSpaceOnUse"
       id="clipPath38-2">
      <path
         d="M 0,841.89 H 595.28 V 0 H 0 Z"
         id="path36-9-9"
         inkscape:connector-curvature="0" />
    </clipPath>
  </defs>
  <sodipodi:namedview
     pagecolor="#ffffff"
     bordercolor="#666666"
     borderopacity="1"
     objecttolerance="10"
     gridtolerance="10"
     guidetolerance="10"
     inkscape:pageopacity="0"
     inkscape:pageshadow="2"
     inkscape:window-width="1920"
     inkscape:window-height="1025"
     id="namedview4"
     showgrid="false"
     inkscape:zoom="1"
     inkscape:cx="-96.209977"
     inkscape:cy="2.6168115"
     inkscape:window-x="1920"
     inkscape:window-y="27"
     inkscape:window-maximized="1"
     inkscape:current-layer="g16300"
     showguides="true"
     inkscape:guide-bbox="true" />
  <g
     inkscape:label="icon"
     id="g16300"
     inkscape:groupmode="layer"
     style="display:inline">
    <g
       id="g16453">
      <rect
         style="opacity:1;vector-effect:none;fill:#ffcd00;fill-opacity:1;stroke:none;stroke-width:0.54991186;stroke-linecap:butt;stroke-linejoin:round;stroke-miterlimit:4;stroke-dasharray:none;stroke-dashoffset:0;stroke-opacity:1;paint-order:normal"
         id="rect16285"
         width="25"
         height="103"
         x="0"
         y="25" />
      <rect
         y="103"
         x="25"
         height="25"
         width="50"
         id="rect16287"
         style="opacity:1;vector-effect:none;fill:#00b5e2;fill-opacity:1;stroke:none;stroke-width:0.38314176;stroke-linecap:butt;stroke-linejoin:round;stroke-miterlimit:4;stroke-dasharray:none;stroke-dashoffset:0;stroke-opacity:1;paint-order:normal" />
      <rect
         style="opacity:1;vector-effect:none;fill:#012169;fill-opacity:1;stroke:none;stroke-width:0.54184425;stroke-linecap:butt;stroke-linejoin:round;stroke-miterlimit:4;stroke-dasharray:none;stroke-dashoffset:0;stroke-opacity:1;paint-order:normal"
         id="rect16289"
         width="50"
         height="50"
         x="25"
         y="53" />
      <rect
         style="opacity:1;vector-effect:none;fill:#6cc24a;fill-opacity:1;stroke:none;stroke-width:0.68323958;stroke-linecap:butt;stroke-linejoin:round;stroke-miterlimit:4;stroke-dasharray:none;stroke-dashoffset:0;stroke-opacity:1;paint-order:normal"
         id="rect16292"
         width="53"
         height="75"
         x="75"
         y="53" />
      <rect
         style="opacity:1;vector-effect:none;fill:#6d2077;fill-opacity:1;stroke:none;stroke-width:0.27092212;stroke-linecap:butt;stroke-linejoin:round;stroke-miterlimit:4;stroke-dasharray:none;stroke-dashoffset:0;stroke-opacity:1;paint-order:normal"
         id="rect16294"
         width="25"
         height="25"
         x="0"
         y="0" />
      <rect
         y="-6.6613381e-15"
         x="25"
         height="53"
         width="103"
         id="rect16296"
         style="opacity:1;vector-effect:none;fill:#e0004d;fill-opacity:1;stroke:none;stroke-width:0.8006838;stroke-linecap:butt;stroke-linejoin:round;stroke-miterlimit:4;stroke-dasharray:none;stroke-dashoffset:0;stroke-opacity:1;paint-order:normal" />
      <rect
         y="4.1723251e-06"
         x="23"
         height="128"
         width="4"
         id="rect16284"
         style="opacity:1;vector-effect:none;fill:#ffffff;fill-opacity:1;stroke:none;stroke-width:0.24521071;stroke-linecap:butt;stroke-linejoin:round;stroke-miterlimit:4;stroke-dasharray:none;stroke-dashoffset:0;stroke-opacity:1;paint-order:normal" />
      <g
         id="g16285-3-2"
         transform="matrix(3.1875,0,0,3.1875,77,-357)"
         style="display:inline">
        <rect
           y="112"
           x="0"
           height="16"
           width="16"
           id="rect16277-6-5"
           style="opacity:1;vector-effect:none;fill:#e0004d;fill-opacity:1;stroke:none;stroke-width:0.17339016;stroke-linecap:butt;stroke-linejoin:round;stroke-miterlimit:4;stroke-dasharray:none;stroke-dashoffset:0;stroke-opacity:1;paint-order:normal" />
        <g
           style="fill:#ffffff"
           transform="matrix(0.22259461,0,0,0.22259461,10.788723,104.62275)"
           id="g16283-7-4">
          <path
             inkscape:connector-curvature="0"
             id="path16279-5-0"
             style="fill:#ffffff;fill-opacity:1;fill-rule:nonzero;stroke:none;stroke-width:1.4477253"
             d="m -16.548287,76.236085 v -9.742818 h 9.0383881 L -0.17396172,47.742605 H -10.159106 l -6.389181,17.402719 -5.944319,-17.402719 h -10.251776 l 11.827327,29.259323 -0.296574,0.796712 c -0.377847,0.959876 -0.748565,1.736009 -1.115006,2.328398 -0.367866,0.59239 -0.951033,1.087762 -1.75378,1.486118 -0.802747,0.398356 -1.916327,0.596799 -3.34359,0.596799 -1.149226,-0.02058 -2.536567,-0.173454 -4.159171,-0.458624 l -0.119769,7.903913 c 2.356909,0.511542 4.328844,0.765843 5.914375,0.765843 2.674873,0 4.873515,-0.535061 6.597354,-1.608123 1.723838,-1.071593 3.01137,-2.278421 3.862595,-3.614604 0.852651,-1.337653 1.625456,-2.885508 2.318413,-4.642097 l 1.691044,-4.320178 z" />
          <path
             d="M 7.6878636,76.382128 H -1.8586389 V 66.835626 H 7.6878636 Z"
             style="fill:#ffffff;fill-opacity:1;fill-rule:nonzero;stroke:none;stroke-width:1.44032931"
             id="path16281-3-5"
             inkscape:connector-curvature="0" />
        </g>
      </g>
      <rect
         style="opacity:1;vector-effect:none;fill:#ffffff;fill-opacity:1;stroke:none;stroke-width:0.18770033;stroke-linecap:butt;stroke-linejoin:round;stroke-miterlimit:4;stroke-dasharray:none;stroke-dashoffset:0;stroke-opacity:1;paint-order:normal"
         id="rect16293"
         width="4"
         height="75"
         x="73"
         y="53.000004" />
      <rect
         transform="rotate(90)"
         y="-74"
         x="101"
         height="48"
         width="4"
         id="rect16295"
         style="opacity:1;vector-effect:none;fill:#ffffff;fill-opacity:1;stroke:none;stroke-width:0.15016027;stroke-linecap:butt;stroke-linejoin:round;stroke-miterlimit:4;stroke-dasharray:none;stroke-dashoffset:0;stroke-opacity:1;paint-order:normal" />
      <rect
         style="opacity:1;vector-effect:none;fill:#ffffff;fill-opacity:1;stroke:none;stroke-width:0.21889432;stroke-linecap:butt;stroke-linejoin:round;stroke-miterlimit:4;stroke-dasharray:none;stroke-dashoffset:0;stroke-opacity:1;paint-order:normal"
         id="rect16297"
         width="4"
         height="102"
         x="51"
         y="-128"
         transform="rotate(90)" />
      <rect
         transform="rotate(90)"
         y="-24"
         x="23"
         height="24"
         width="4"
         id="rect16299"
         style="opacity:1;vector-effect:none;fill:#ffffff;fill-opacity:1;stroke:none;stroke-width:0.10617932;stroke-linecap:butt;stroke-linejoin:round;stroke-miterlimit:4;stroke-dasharray:none;stroke-dashoffset:0;stroke-opacity:1;paint-order:normal" />
    </g>
  </g>
</svg>

<?xml version="1.0" encoding="UTF-8" standalone="no"?>
<!-- Created with Inkscape (http://www.inkscape.org/) -->

<svg
   xmlns:dc="http://purl.org/dc/elements/1.1/"
   xmlns:cc="http://creativecommons.org/ns#"
   xmlns:rdf="http://www.w3.org/1999/02/22-rdf-syntax-ns#"
   xmlns:svg="http://www.w3.org/2000/svg"
   xmlns="http://www.w3.org/2000/svg"
   xmlns:sodipodi="http://sodipodi.sourceforge.net/DTD/sodipodi-0.dtd"
   xmlns:inkscape="http://www.inkscape.org/namespaces/inkscape"
   id="svg2"
   version="1.1"
   inkscape:version="0.91 r"
   width="128"
   height="128"
   sodipodi:docname="icon.svg"
   inkscape:export-filename="/home/jcamacho/workspace/odoo/addons/website/auth_signup_force_email/static/description/icon.png"
   inkscape:export-xdpi="90"
   inkscape:export-ydpi="90">
  <metadata
     id="metadata8">
    <rdf:RDF>
      <cc:Work
         rdf:about="">
        <dc:format>image/svg+xml</dc:format>
        <dc:type
           rdf:resource="http://purl.org/dc/dcmitype/StillImage" />
        <dc:title />
      </cc:Work>
    </rdf:RDF>
  </metadata>
  <defs
     id="defs6">
    <symbol
       id="symbol5748">
      <title
         id="title5750">Grade</title>
      <path
         d="M24 34.54l12.36 7.46-3.27-14.06 10.91-9.45-14.38-1.24-5.62-13.25-5.62 13.25-14.38 1.24 10.91 9.45-3.27 14.06z"
         style="stroke:none"
         id="path5752" />
    </symbol>
    <symbol
       id="symbol4786">
      <title
         id="title4788">Person</title>
      <path
         d="M24 24c4.42 0 8-3.59 8-8 0-4.42-3.58-8-8-8s-8 3.58-8 8c0 4.41 3.58 8 8 8zm0 4c-5.33 0-16 2.67-16 8v4h32v-4c0-5.33-10.67-8-16-8z"
         style="stroke:none"
         id="path4790" />
    </symbol>
    <symbol
       id="symbol5791">
      <title
         id="title5793">Https</title>
      <path
         d="M36 16h-2v-4c0-5.52-4.48-10-10-10s-10 4.48-10 10v4h-2c-2.21 0-4 1.79-4 4v20c0 2.21 1.79 4 4 4h24c2.21 0 4-1.79 4-4v-20c0-2.21-1.79-4-4-4zm-12 18c-2.21 0-4-1.79-4-4s1.79-4 4-4 4 1.79 4 4-1.79 4-4 4zm6.2-18h-12.4v-4c0-3.42 2.78-6.2 6.2-6.2 3.42 0 6.2 2.78 6.2 6.2v4z"
         style="stroke:none"
         id="path5795" />
    </symbol>
    <symbol
       id="symbol5857">
      <title
         id="title5859">Lock Open</title>
      <path
         d="M24 34c2.21 0 4-1.79 4-4s-1.79-4-4-4-4 1.79-4 4 1.79 4 4 4zm12-18h-2v-4c0-5.52-4.48-10-10-10s-10 4.48-10 10h3.8c0-3.42 2.78-6.2 6.2-6.2 3.42 0 6.2 2.78 6.2 6.2v4h-18.2c-2.21 0-4 1.79-4 4v20c0 2.21 1.79 4 4 4h24c2.21 0 4-1.79 4-4v-20c0-2.21-1.79-4-4-4zm0 24h-24v-20h24v20z"
         style="stroke:none"
         id="path5861" />
    </symbol>
    <symbol
       id="symbol10530">
      <title
         id="title10532">Local Grocery Store</title>
      <path
         d="M14 36c-2.21 0-3.98 1.79-3.98 4s1.77 4 3.98 4 4-1.79 4-4-1.79-4-4-4zM2 4v4h4l7.19 15.17-2.7 4.9c-.31.58-.49 1.23-.49 1.93 0 2.21 1.79 4 4 4h24v-4H14.85c-.28 0-.5-.22-.5-.5 0-.09.02-.17.06-.24L16.2 26h14.9c1.5 0 2.81-.83 3.5-2.06l7.15-12.98c.16-.28.25-.61.25-.96 0-1.11-.9-2-2-2H10.43l-1.9-4H2zm32 32c-2.21 0-3.98 1.79-3.98 4s1.77 4 3.98 4 4-1.79 4-4-1.79-4-4-4z"
         style="stroke:none"
         id="path10534" />
    </symbol>
    <symbol
       id="symbol5119">
      <title
         id="title5121">Mail</title>
      <path
         d="M40 8h-32c-2.21 0-3.98 1.79-3.98 4l-.02 24c0 2.21 1.79 4 4 4h32c2.21 0 4-1.79 4-4v-24c0-2.21-1.79-4-4-4zm0 8l-16 10-16-10v-4l16 10 16-10v4z"
         style="stroke:none"
         id="path5123" />
    </symbol>
    <symbol
       id="symbol7506">
      <title
         id="title7508">Check</title>
      <path
         d="M18 32.34L9.66 24l-2.83 2.83L18 38l24-24-2.83-2.83z"
         style="stroke:none"
         id="path7510" />
    </symbol>
    <clipPath
       clipPathUnits="userSpaceOnUse"
       id="clipPath13866">
      <rect
         style="opacity:1;fill:#d50000;fill-opacity:1;stroke:none;stroke-width:4;stroke-linecap:butt;stroke-linejoin:miter;stroke-miterlimit:4;stroke-dasharray:none;stroke-dashoffset:0;stroke-opacity:1"
         id="rect13868"
         width="33.185184"
         height="17.777779"
         x="7.4074073"
         y="-0.53565156" />
    </clipPath>
  </defs>
  <sodipodi:namedview
     pagecolor="#ffffff"
     bordercolor="#666666"
     borderopacity="1"
     objecttolerance="10"
     gridtolerance="10"
     guidetolerance="10"
     inkscape:pageopacity="0"
     inkscape:pageshadow="2"
     inkscape:window-width="1920"
     inkscape:window-height="1056"
     id="namedview4"
     showgrid="false"
     inkscape:zoom="2.8284271"
     inkscape:cx="62.156025"
     inkscape:cy="47.491917"
     inkscape:window-x="1366"
     inkscape:window-y="24"
     inkscape:window-maximized="1"
     inkscape:current-layer="layer1"
     showguides="true"
     inkscape:guide-bbox="true">
    <sodipodi:guide
       position="64,100.23239"
       orientation="1,0"
       id="guide5698"
       inkscape:label=""
       inkscape:color="rgb(0,0,255)" />
    <sodipodi:guide
       position="88.741901,64"
       orientation="0,1"
       id="guide5700"
       inkscape:label=""
       inkscape:color="rgb(0,0,255)" />
  </sodipodi:namedview>
  <g
     inkscape:groupmode="layer"
     id="layer1"
     inkscape:label="Layer 1">
    <g
       inkscape:export-ydpi="90"
       inkscape:export-xdpi="90"
       inkscape:export-filename="/home/jcamacho/localhost/trey.es/wp-content/themes/ebrightfortrey/images/favicon.png"
       id="g12777"
       transform="matrix(0.36191721,0,0,0.36191721,-108.67233,-121.90772)"
       style="fill:#ad1457">
      <path
         id="path12779"
         style="display:inline;fill:#22639b;fill-opacity:1;fill-rule:nonzero;stroke:none"
         d="m 554.19172,442.42931 c -14.3359,-0.0658 -23.71722,5.04459 -31.46288,9.22507 -8.84714,4.76532 -20.88157,21.6212 -24.06166,31.57814 -8.21378,25.75312 -14.71238,52.13879 -25.29215,77.07785 -5.18423,13.07037 -11.85465,21.52175 -19.96997,25.35147 -3.82719,2.47329 -9.81664,4.76363 -16.12555,4.76363 -0.9043,0.31303 -4.10731,-0.0306 -8.85537,-0.73856 2.36584,-1.64201 4.98635,-3.82719 7.94269,-6.65377 3.71404,-3.71408 6.2605,-6.63674 7.63166,-8.79881 3.71384,-5.47843 6.96668,-11.91963 9.71126,-19.36221 l 19.12226,-63.45847 c 0.58484,-2.54753 1.56085,-5.09147 2.92524,-7.63227 3.53318,-6.46431 8.0167,-9.71718 13.50588,-9.71718 3.5643,-5.78316 4.83849,-10.11146 14.16956,-15.75582 -15.70748,-1.65946 -25.23559,3.54957 -32.92465,7.69706 -7.68803,4.14936 -18.12081,18.83645 -20.89087,27.4872 -7.13682,22.38441 -12.85519,45.26235 -22.04746,66.9418 -4.50246,11.36 -10.29381,18.72042 -17.34946,22.0473 -2.06261,1.34001 -4.49343,2.24197 -7.38499,2.75277 -0.0268,-0.008 -0.0398,0 -0.0654,0 -4.78847,-0.89546 -9.7599,-1.84009 -14.65517,-2.75277 1.57722,-1.19849 3.31808,-2.66237 5.1918,-4.45979 2.96542,-2.96537 5.0118,-5.3001 6.10261,-7.02431 2.9738,-4.37836 5.57115,-9.57017 7.76456,-15.50937 l 15.20465,-50.70037 c 0.46897,-2.02894 1.28892,-4.07536 2.38222,-6.10429 2.81843,-5.16697 6.42478,-7.69725 10.81137,-7.69725 2.84973,-4.62488 3.84441,-8.13261 11.30344,-12.64074 -12.55199,-1.32256 -20.18426,2.84973 -26.32893,6.16759 -6.14466,3.31047 -14.46608,15.01725 -16.67671,21.92592 -5.70092,17.89163 -10.24375,36.18572 -17.58691,53.50154 -3.60616,9.07809 -8.231,15.00004 -13.86717,17.65418 -0.96104,0.62437 -2.05204,1.06789 -3.23665,1.46954 -9.96363,-1.70106 -18.0222,-2.82573 -21.43951,-2.62869 -12.25546,0.70744 -22.14604,2.25922 -33.65567,22.23738 16.93958,-10.3571 25.84355,-10.95035 40.43374,-7.08929 24.22426,6.40733 58.3316,13.99123 58.3316,13.99123 5.1672,0.43533 3.66379,1.19026 16.55265,2.13409 12.88887,0.94486 39.57781,-3.25288 54.11772,-19.30523 14.31907,-15.80357 18.73784,-30.60633 19.91337,-34.50922 l 21.9821,-72.98761 c 0.67297,-2.92378 1.79168,-5.86539 3.36053,-8.79713 4.05875,-7.43355 9.20888,-11.17284 15.51775,-11.17284 4.10712,-6.66219 5.63387,-11.64854 16.37161,-18.1463 -2.25857,-0.23726 -4.42883,-0.35321 -6.47296,-0.36162 z"
         inkscape:connector-curvature="0" />
      <path
         id="path12781"
         style="display:inline;fill:#00aad4;fill-opacity:1;fill-rule:nonzero;stroke:none"
         d="m 640.12521,414.99989 c -12.99631,7.8714 -14.81118,13.94079 -19.78046,21.99955 -7.64012,0 -13.91535,4.50246 -18.82788,13.51304 -1.9074,3.54957 -3.2701,7.0893 -4.08397,10.6389 l -26.59829,88.3813 c -3.82107,10.35943 -8.31301,19.36201 -13.49682,26.99344 -1.91371,3.00747 -5.45508,7.09752 -10.63889,12.27356 -6.27524,6.00331 -11.58946,10.09589 -15.95312,12.27288 -13.6438,7.91977 -32.68636,11.71333 -52.86833,11.71333 l -25.18699,-2.94835 c 15.91921,-3.65453 24.85031,-6.95031 36.24396,-18.00727 7.62978,0 16.70786,-0.84625 21.34108,-3.84465 9.82468,-4.63306 17.87521,-14.86778 24.15049,-30.68838 12.80704,-30.19898 20.73523,-62.10495 30.68226,-93.28794 3.85264,-12.0502 18.38413,-32.49648 29.10503,-38.27144 10.7209,-5.78338 24.0369,-13.0365 45.91193,-10.73797 z"
         inkscape:connector-curvature="0" />
    </g>
  </g>
</svg>
